symbols/web/flood/materialsymbolsrounded/flood_wght300gradN25_24px.svg

<svg xmlns="http://www.w3.org/2000/svg" height="24" width="24"><path d="M8.75 20.825q-1.3 0-1.8-.5t-1.475-.5q-.7 0-1.112.312-.413.313-1.013.513-.325.1-.6-.088-.275-.187-.275-.587 0-.2.163-.413.162-.212.412-.312.55-.225.988-.525.437-.3 1.437-.3 1.325 0 1.813.5.487.5 1.462.5.95 0 1.45-.5t1.8-.5q1.275 0 1.812.5.538.5 1.463.5.975 0 1.463-.5.487-.5 1.812-.5 1 0 1.425.3.425.3.975.525.25.125.413.312.162.188.162.438 0 .375-.275.562-.275.188-.6.063-.6-.2-1-.5t-1.1-.3q-.95 0-1.463.5-.512.5-1.812.5t-1.812-.5q-.513-.5-1.463-.5-.975 0-1.462.5-.488.5-1.788.5Zm-5.375-3.9q-.35.125-.625-.062-.275-.188-.275-.588 0-.225.163-.425.162-.2.412-.325.55-.2.988-.5.437-.3 1.437-.3.275 0 .55.075t.675.25l-1.175-4.4-1 1.3q-.2.225-.475.275-.275.05-.5-.15-.25-.2-.275-.488-.025-.287.175-.512l5.775-7.15q.35-.45.888-.588.537-.137 1.062.063l8.6 3.3q.3.1.413.362.112.263.012.513-.125.3-.388.4-.262.1-.537 0l-1.5-.6L19.8 15q.3.075.575.238.275.162.575.287.25.1.413.313.162.212.162.437 0 .4-.262.588-.263.187-.613.062-.6-.2-1-.5t-1.1-.3q-.975 0-1.475.488-.5.487-1.8.487t-1.812-.487q-.513-.488-1.463-.488-.975 0-1.462.488-.488.487-1.788.487-1.275 0-1.8-.487-.525-.488-1.475-.488-.675 0-1.1.3-.425.3-1 .5ZM8.75 15.7q.8 0 1.263-.363.462-.362 1.212-.537l-.95-3.45 3.75-.975 1.4 5.325q.8-.05 1.287-.487.488-.438 1.563-.488l-2.15-7.975-5.65-2.1-3.85 4.65 1.7 6.375q.125.025.225.025h.2Zm3.7-5.525Z"/></svg>

<svg xmlns="http://www.w3.org/2000/svg" height="24" width="24"><path d="M8.75 20.825Q7.45 20.825 6.95 20.325Q6.45 19.825 5.475 19.825Q4.775 19.825 4.363 20.137Q3.95 20.45 3.35 20.65Q3.025 20.75 2.75 20.562Q2.475 20.375 2.475 19.975Q2.475 19.775 2.638 19.562Q2.8 19.35 3.05 19.25Q3.6 19.025 4.038 18.725Q4.475 18.425 5.475 18.425Q6.8 18.425 7.288 18.925Q7.775 19.425 8.75 19.425Q9.7 19.425 10.2 18.925Q10.7 18.425 12 18.425Q13.275 18.425 13.812 18.925Q14.35 19.425 15.275 19.425Q16.25 19.425 16.738 18.925Q17.225 18.425 18.55 18.425Q19.55 18.425 19.975 18.725Q20.4 19.025 20.95 19.25Q21.2 19.375 21.363 19.562Q21.525 19.75 21.525 20Q21.525 20.375 21.25 20.562Q20.975 20.75 20.65 20.625Q20.05 20.425 19.65 20.125Q19.25 19.825 18.55 19.825Q17.6 19.825 17.087 20.325Q16.575 20.825 15.275 20.825Q13.975 20.825 13.463 20.325Q12.95 19.825 12 19.825Q11.025 19.825 10.538 20.325Q10.05 20.825 8.75 20.825ZM3.375 16.925Q3.025 17.05 2.75 16.863Q2.475 16.675 2.475 16.275Q2.475 16.05 2.638 15.85Q2.8 15.65 3.05 15.525Q3.6 15.325 4.038 15.025Q4.475 14.725 5.475 14.725Q5.75 14.725 6.025 14.8Q6.3 14.875 6.7 15.05L5.525 10.65L4.525 11.95Q4.325 12.175 4.05 12.225Q3.775 12.275 3.55 12.075Q3.3 11.875 3.275 11.587Q3.25 11.3 3.45 11.075L9.225 3.925Q9.575 3.475 10.113 3.337Q10.65 3.2 11.175 3.4L19.775 6.7Q20.075 6.8 20.188 7.062Q20.3 7.325 20.2 7.575Q20.075 7.875 19.812 7.975Q19.55 8.075 19.275 7.975L17.775 7.375L19.8 15Q20.1 15.075 20.375 15.238Q20.65 15.4 20.95 15.525Q21.2 15.625 21.363 15.838Q21.525 16.05 21.525 16.275Q21.525 16.675 21.263 16.863Q21 17.05 20.65 16.925Q20.05 16.725 19.65 16.425Q19.25 16.125 18.55 16.125Q17.575 16.125 17.075 16.613Q16.575 17.1 15.275 17.1Q13.975 17.1 13.463 16.613Q12.95 16.125 12 16.125Q11.025 16.125 10.538 16.613Q10.05 17.1 8.75 17.1Q7.475 17.1 6.95 16.613Q6.425 16.125 5.475 16.125Q4.8 16.125 4.375 16.425Q3.95 16.725 3.375 16.925ZM8.75 15.7Q9.55 15.7 10.013 15.337Q10.475 14.975 11.225 14.8L10.275 11.35L14.025 10.375L15.425 15.7Q16.225 15.65 16.712 15.213Q17.2 14.775 18.275 14.725L16.125 6.75L10.475 4.65L6.625 9.3L8.325 15.675Q8.45 15.7 8.55 15.7Q8.65 15.7 8.75 15.7ZM12.45 10.175Q12.45 10.175 12.45 10.175Q12.45 10.175 12.45 10.175Q12.45 10.175 12.45 10.175Q12.45 10.175 12.45 10.175Q12.45 10.175 12.45 10.175Q12.45 10.175 12.45 10.175Q12.45 10.175 12.45 10.175Q12.45 10.175 12.45 10.175Q12.45 10.175 12.45 10.175Q12.45 10.175 12.45 10.175Z"/></svg>
